src/icons/qr-code.svg

<svg xmlns="http://www.w3.org/2000/svg" width="24" height="24" fill="none"><path fill="currentColor" d="M5 5h2v2H5z"/><path fill="currentColor" fill-rule="evenodd" d="M2 10V2h8v8zm2-6h4v4H4z" clip-rule="evenodd"/><path fill="currentColor" d="M5 19v-2h2v2z"/><path fill="currentColor" fill-rule="evenodd" d="M2 22v-8h8v8zm6-6v4H4v-4z" clip-rule="evenodd"/><path fill="currentColor" d="M19 5h-2v2h2z"/><path fill="currentColor" fill-rule="evenodd" d="M22 2h-8v8h8zm-2 2h-4v4h4z" clip-rule="evenodd"/><path fill="currentColor" d="M22 11h-2v2h-2v2h-2v-2h1v-2h-3v4h2v2h-2v2h2v-2h2v2h2v1h-2v2h4v-5h-4v-2h4zm-9-8h-2v4h2zm0 5h-2v2h2zm0 3h-2v6h2z"/><path fill="currentColor" d="M11 18h2v2h3v2h-5zm-5-7v2h4v-2zm-3 0v2h2v-2z"/></svg>

<svg width="24" height="24" viewBox="0 0 24 24" fill="none" xmlns="http://www.w3.org/2000/svg">
<path d="M5 5H7V7H5V5Z" fill="black"/>
<path fill-rule="evenodd" clip-rule="evenodd" d="M2 10V2H10V10H2ZM4 4H8V8H4V4Z" fill="black"/>
<path d="M5 19V17H7V19H5Z" fill="black"/>
<path fill-rule="evenodd" clip-rule="evenodd" d="M2 22V14H10V22H2ZM8 16V20H4V16H8Z" fill="black"/>
<path d="M19 5H17V7H19V5Z" fill="black"/>
<path fill-rule="evenodd" clip-rule="evenodd" d="M22 2H14V10H22V2ZM20 4H16V8H20V4Z" fill="black"/>
<path d="M22 11H20V13H18V15H16V13H17V11H14V15H16V17H14V19H16V17H18V19H20V20H18V22H22V17H18V15H22V11Z" fill="black"/>
<path d="M13 3H11V7H13V3Z" fill="black"/>
<path d="M13 8H11V10H13V8Z" fill="black"/>
<path d="M13 11H11V17H13V11Z" fill="black"/>
<path d="M11 18H13V20H16V22H11V18Z" fill="black"/>
<path d="M6 11V13H10V11H6Z" fill="black"/>
<path d="M3 11V13H5V11H3Z" fill="black"/>
</svg>
